X:1
T:Sweeping Through the Gates
T:Sweeping Through the Gates
T:John Lewis Moore
T:Arranged by John Lewis Moore, 1890
T:Public Domain Courtesy of the Cyber Hymnal™
T:Public Domain Courtesy of the Cyber Hymnal™
C:John Lewis Moore
Z:Public Domain
Z:Courtesy of the Cyber Hymnal™
%%score ( 1 2 ) ( 3 4 )
L:1/8
Q:1/4=95
M:4/4
K:C
V:1 treble 
V:2 treble 
V:3 bass 
V:4 bass 
V:1
 [CE][DF] | [EG][EG][EG][EG] [EG]2 [EG][EG] | [FA][Ac][Ac][FA] [EG]2 [CE][DF] | %3
w: 1.~I am|now a child of God, I’ve been|washed in Je- sus’ blood, I am|
w: 2.~Oh, the|bless- èd Lord of light Now up-|holds me by His might, And His|
w: 3.~I am|sweep- ing thro’ the gate, Where the|bless- èd for me wait, Where the|
w: 4.~Burst are|all my pri- son bars, And I|soar be- yond the stars, To my|
 [EG][EG][EG][EG] [Ec][Gc][FB][Ec] | [Gd]6 [Ec][Fd] | [Ge][Ge][Gd][Fd] [Ec]2 [Ec][Gc] | %6
w: watch- ing and I’m long- ing while I|wait; Soon on|wings of love I’ll fly, To a|
w: arms en- fold and com- fort while I|wait; I am|lean- ing on His breast; Oh, the|
w: wea- ry work- ers rest for- ev- er-|more. Where the|strife of earth is done, And the|
w: Fa- ther’s house, the bright and blest es-|tate; Lo! the|morn e- ter- nal breaks, And the|
 [Fd][Fc][Fc][FA] [EG]2 [EG][EG] | [FA]<[Ac] [Gc][Gd] [Ge]<[Ge] [Gd]>[Fd] | [Ec]6 z2 || %9
w: home be- yond the sky; To my|wel- come, as I’m sweep- ing thro’ the|gates.|
w: sweet- ness of this rest! Hal- le-|lu- jah! I am sweep- ing thro’ the|gates.|
w: crown of life is won, Oh, the|glo- ry of that ci- ty just be-|fore!|
w: song im- mor- tal wakes, Washed in|Je- sus’ blood, I’m sweep- ing thro’ the|gates.|
"^Refrain" c4- cG[CE][EG] | c6 z2 | e4- ed[Ec][Ge] | d6 z2 | [Ec][Fd] | %14
w: |||||
w: Sweep- * ing thro’ the|gates,|Sweep- * ing thro’ the|gates,|In the|
w: |||||
w: |||||
 [Ge][Ge][Gd][Fd] [Ec]2 [Ec][Gc] | [Fd][Fc][Fc][FA] [EG]2 [EG][EG] | %16
w: ||
w: blood of Cal- v’ry’s Lamb, Washed from|ev- ery stain I am; Hal- le-|
w: ||
w: ||
 [FA]<[Ac] [Gc][Gd] [Ge]<[Ge] [Gd]>[Fd] | [Ec]6 z2 |] %18
w: ||
w: lu- jah! I am sweep- ing thro’ the|gates.|
w: ||
w: ||
V:2
 x2 | x8 | x8 | x8 | x8 | x8 | x8 | x8 | x8 || (E<EE>E E2) x2 | (E<EE>E E2) x2 | (G<GG>G G2) x2 | %12
 (^F<FF>F G2) x2 | x2 | x8 | x8 | x8 | x8 |] %18
V:3
 [C,G,][C,G,] | [C,C][C,C][C,C][C,C] [C,C]2 [C,C][C,C] | [F,C][F,C][F,C][F,C] [C,C]2 [C,G,][C,G,] | %3
w: |||
 [C,C][C,C][C,C][C,C] [C,C][E,C][D,G,][C,C] | [G,B,]6 [G,C][G,B,] | CC[G,B,][G,B,] C2 [C,C][E,C] | %6
w: ||Sweep- ing * * thro’ * *|
 [F,A,][F,A,][F,A,][F,C] [C,C]2 [C,C][C,C] | [F,C]<[F,C] [E,C][G,B,] C<C [G,B,]>G, | [C,G,]6 z2 || %9
w: |* * * * the gates; * Yes,||
 [C,G,]<[C,G,] [C,G,]>[C,G,] [C,G,]2 [C,G,][C,G,] | [C,G,]<[C,G,] [C,G,]>[C,G,] [C,G,]2 z2 | %11
w: I’m sweep- ing thro’ the gates; Sweep-|ing thro’ the gates; Yes,|
 C<C C>C C2 CC | [A,C]<[A,C] [D,A,]>[D,C] [G,B,]2 z2 | [G,C][G,B,] | CC[G,B,][G,B,] C2 [C,C][E,C] | %15
w: I’m sweep- ing thro’ the gates. *||||
 [F,A,][F,A,][F,A,][F,C] [C,C]2 [C,C][C,C] | [F,C]<[F,C] [E,C][G,B,] C<C [G,B,]>G, | [C,G,]6 z2 |] %18
w: |||
V:4
 x2 | x8 | x8 | x8 | x8 | CC x C2 x3 | x8 | x4 C<C G,/ x3/2 | x8 || x8 | x8 | C<C C>C C2 CC | x8 | %13
 x2 | CC x C2 x3 | x8 | x4 C<C G,/ x3/2 | x8 |] %18

